X:56
T:Schottis fran Norrbotten
M:2/4
L:1/16
Q:1/4=80
S:(not strictly Finland, but near it)
R:jenkka
K:Dm
|: "A7" A,2 | "Dm" D2DE FEFG | ABAG A4 | d2de f2~e2 | d4 A2de | !
f2~e2 d2AB | "C" c2~B2 "F" A2FG | "Dm" ABAG F2G2 | "A" A6 de | !
"Dm" f2~e2 d2AB | "C" cBAG "F" A2FG | "Dm" ABAG "A" F2E2 | "Dm" D4 D2 :| !
|: "A7" A2 | "Dm" AFDF AFDF | A2d2 "C" c2~B2 |
"Dm" ABAG F2FG | "A7" A4 A2A2 | !
"Dm" AFDF AFDF | A2d2 "C" c2~B2 | "Dm" ABAG "A7" F2FE | "Dm" D4 D2 :| !
|: "A7" de | "Dm" f2~e2 d2AB | "C" c2~B2 "F" A2FG |
"Dm" ABAG F2FG | "A7" A4 A2de | !
"Dm" f2~e2 d2AB | "C" c2~B2 "F" A2FG | "Dm" ABAG "A7" F2~E2 | "Dm" D4 D2 :|
